X: 312
T:Trip to Herve's, The
M:2/2
L:1/8
C:Michael McGoldrick
R:Reel
D:Michael McGoldrick,Morning Rory
Z:Rob Greenway, 6/98
K:D
FAAF ABde | f2af dAFA | B2dB AFDE | FEED E3G |
FAAF ABde | f2af dAFA | B2dB AFDG | ~F3E D4 ::
AB~B2 d2AG | ~F3E FGFE | DEFG ~A2DE | FG~A2 FG~A2 |
1 AB~B2 d2AG | ~F3E FGFE | DEFG ABAG | ~F2EG FDD2 :|
2 ~B2 F ~A2 E ~F2 | DEED EFGA | ~B2 F ~A2 E ~F2 | DEED EFGA ||

